X:6
T:Gan Ainm
R:Reel
S:Paddy Canny, Clare (fiddle)
D:Home tape of unknown provenance
H:As played
M:4/4
K:D
|: DF~F2 DGBG | DF~F2 ED=CE | DF~F2 ABde |1 fdAG FGEF :|2 fdAG FDD2 ||
fgaf (3gfg ag | fg (3.a.g.f gfeg | fgaf (3gfg fg | fdAG FDD2A,2 |
fgaf ~g2ag | fg (3.a.g.f gfeg | fdAF G2FA | dBAG FGEF ||
